static/logos/gitbook-glyph-color.svg

<svg width="50" height="37" viewBox="0 0 50 37" fill="none" xmlns="http://www.w3.org/2000/svg">
<path d="M22.563 29.8567C23.3105 29.8567 23.9833 30.4571 23.9833 31.2825C23.9833 32.0327 23.3853 32.7081 22.563 32.7081C21.8154 32.7081 21.1426 32.1077 21.1426 31.2825C21.1426 30.4571 21.8154 29.8567 22.563 29.8567ZM44.5413 21.1532C43.7937 21.1532 43.1209 20.553 43.1209 19.7276C43.1209 18.9774 43.7189 18.302 44.5413 18.302C45.2888 18.302 45.9616 18.9024 45.9616 19.7276C45.9616 20.478 45.2888 21.1532 44.5413 21.1532ZM44.5413 15.3759C42.1491 15.3759 40.2054 17.3266 40.2054 19.7276C40.2054 20.1778 40.2802 20.6281 40.4297 21.0782L26.1513 28.7314C25.3289 27.5309 23.9833 26.8556 22.563 26.8556C20.9183 26.8556 19.4232 27.831 18.6756 29.2566L5.81766 22.5038C4.47205 21.7535 3.42546 19.5776 3.57498 17.4767C3.64973 16.4263 4.02351 15.6009 4.54681 15.3009C4.92059 15.0758 5.29437 15.1508 5.81766 15.3759C9.25646 17.1766 20.4698 23.1041 20.9183 23.3292C21.6659 23.6292 22.0397 23.7793 23.3105 23.1791L46.3354 11.1741C46.7092 11.0241 47.083 10.724 47.083 10.1988C47.083 9.52346 46.4102 9.22332 46.4102 9.22332C45.0646 8.6231 43.0461 7.64766 41.1025 6.74732C36.9161 4.79651 32.1317 2.54557 30.0386 1.42012C28.2444 0.444716 26.7493 1.27006 26.525 1.42012C17.031 6.2221 3.94876 12.6748 3.2012 13.1249C1.93034 13.8752 1.10803 15.4509 1.03328 17.4016C0.88376 20.478 2.45364 23.7043 4.69632 24.8298L18.3019 31.8827C18.6009 33.9836 20.4698 35.6342 22.563 35.6342C24.9552 35.6342 26.8241 33.7585 26.8988 31.3575L41.85 23.2541C42.5976 23.8544 43.5694 24.1544 44.5413 24.1544C46.9335 24.1544 48.8771 22.2037 48.8771 19.8027C48.8771 17.3266 46.9335 15.3759 44.5413 15.3759Z" fill="#4D82F7"/>
</svg>

<svg xmlns="http://www.w3.org/2000/svg" width="86.486" height="64" fill="none" viewBox="0 0 50 37"><path fill="#4D82F7" d="M22.563 29.857c.748 0 1.42.6 1.42 1.425 0 .75-.598 1.426-1.42 1.426-.748 0-1.42-.6-1.42-1.425 0-.826.672-1.426 1.42-1.426Zm21.978-8.704c-.747 0-1.42-.6-1.42-1.425 0-.75.598-1.426 1.42-1.426.748 0 1.42.6 1.42 1.426 0 .75-.672 1.425-1.42 1.425Zm0-5.777c-2.392 0-4.336 1.95-4.336 4.352 0 .45.075.9.225 1.35L26.15 28.731a4.327 4.327 0 0 0-3.588-1.875c-1.645 0-3.14.975-3.887 2.4L5.818 22.505c-1.346-.75-2.393-2.926-2.243-5.027.075-1.05.449-1.876.972-2.176.374-.225.747-.15 1.27.075 3.44 1.8 14.653 7.728 15.101 7.953.748.3 1.122.45 2.393-.15l23.024-12.005c.374-.15.748-.45.748-.975 0-.676-.673-.976-.673-.976-1.345-.6-3.364-1.575-5.307-2.476-4.187-1.95-8.971-4.201-11.064-5.327-1.795-.975-3.29-.15-3.514 0C17.031 6.222 3.949 12.675 3.201 13.125c-1.27.75-2.093 2.326-2.168 4.277-.15 3.076 1.42 6.302 3.663 7.428l13.606 7.053c.299 2.1 2.168 3.751 4.261 3.751 2.392 0 4.261-1.876 4.336-4.276l14.951-8.104c.748.6 1.72.9 2.691.9 2.393 0 4.336-1.95 4.336-4.351 0-2.476-1.944-4.427-4.336-4.427Z"/></svg>
